svgs/sharp-regular/memo-circle-check.svg

<svg xmlns="http://www.w3.org/2000/svg" viewBox="0 0 576 512"><!--! Font Awesome Pro 6.6.0 by @fontawesome - https://fontawesome.com License - https://fontawesome.com/license (Commercial License) Copyright 2024 Fonticons, Inc. --><path d="M48 48l288 0 0 172.5c14.6-9.5 30.8-17 48-21.8L384 48l0-48L336 0 48 0 0 0 0 48 0 464l0 48 48 0 282.8 0c-18.3-12.9-34.1-29.2-46.3-48L48 464 48 48zM288 224l-24 0-144 0-24 0 0 48 24 0 144 0 20.5 0c1.1-1.8 2.3-3.5 3.5-5.2l0-42.8zM120 128l-24 0 0 48 24 0 144 0 24 0 0-48-24 0-144 0zm0 192l-24 0 0 48 24 0 48 0 24 0 0-48-24 0-48 0zm456 48a144 144 0 1 0 -288 0 144 144 0 1 0 288 0zm-65.4-32l-11.3 11.3-72 72L416 430.6l-11.3-11.3-40-40L353.4 368 376 345.4l11.3 11.3L416 385.4l60.7-60.7L488 313.4 510.6 336z"/></svg>

<svg xmlns="http://www.w3.org/2000/svg" viewBox="0 0 576 512"><!--! Font Awesome Pro 6.5.2 by @fontawesome - https://fontawesome.com License - https://fontawesome.com/license (Commercial License) Copyright 2024 Fonticons, Inc. --><path d="M48 48H336V220.5c14.6-9.5 30.8-17 48-21.8V48 0H336 48 0V48 464v48H48 330.8c-18.3-12.9-34.1-29.2-46.3-48H48V48zM288 224H264 120 96v48h24H264h20.5c1.1-1.8 2.3-3.5 3.5-5.2V224zM120 128H96v48h24H264h24V128H264 120zm0 192H96v48h24 48 24V320H168 120zm456 48a144 144 0 1 0 -288 0 144 144 0 1 0 288 0zm-65.4-32l-11.3 11.3-72 72L416 430.6l-11.3-11.3-40-40L353.4 368 376 345.4l11.3 11.3L416 385.4l60.7-60.7L488 313.4 510.6 336z"/></svg>
